src/images/icon-form-phone.svg

<svg width="25" height="25" viewBox="0 0 25 25" fill="none" xmlns="http://www.w3.org/2000/svg">
<path d="M5.09423 16.6183C7.56004 19.5659 10.5283 21.8867 13.9162 23.5288C15.2061 24.1401 16.9312 24.8653 18.853 24.9896C18.9722 24.9948 19.0862 25 19.2053 25C20.4952 25 21.5312 24.5545 22.3756 23.6376C22.3808 23.6324 22.3912 23.622 22.3963 23.6117C22.6968 23.2491 23.0387 22.9227 23.3961 22.5756C23.6396 22.3425 23.8883 22.099 24.1266 21.8504C25.23 20.7004 25.23 19.2395 24.1162 18.1258L21.0029 15.0124C20.4745 14.4633 19.8425 14.1732 19.1794 14.1732C18.5163 14.1732 17.8791 14.4633 17.3352 15.0073L15.4807 16.8618C15.3097 16.7634 15.1336 16.6753 14.9678 16.5924C14.7606 16.4888 14.569 16.3904 14.398 16.2816C12.7092 15.2093 11.1759 13.8106 9.70986 12.0131C8.96908 11.0754 8.47177 10.288 8.12469 9.48508C8.61164 9.04476 9.0675 8.58371 9.50782 8.13303C9.66323 7.97244 9.82382 7.81185 9.98441 7.65126C10.5439 7.09179 10.8443 6.44426 10.8443 5.78637C10.8443 5.12847 10.5491 4.48094 9.98441 3.92147L8.44069 2.37775C8.25938 2.19644 8.08843 2.02031 7.9123 1.839C7.5704 1.48674 7.21296 1.12412 6.8607 0.797762C6.32714 0.274554 5.70032 0 5.03725 0C4.37935 0 3.74736 0.274555 3.19307 0.802942L1.25565 2.74036C0.551131 3.44488 0.15225 4.29963 0.069366 5.28906C-0.0290592 6.52714 0.198873 7.84293 0.789424 9.43328C1.69597 11.8939 3.06356 14.1784 5.09423 16.6183ZM1.33335 5.39784C1.39552 4.70887 1.65971 4.13386 2.15702 3.63655L4.08408 1.70949C4.38453 1.41939 4.71607 1.26917 5.03725 1.26917C5.35325 1.26917 5.67442 1.41939 5.9697 1.71985C6.31678 2.04103 6.64313 2.37775 6.99539 2.73518C7.17152 2.91649 7.35283 3.0978 7.53414 3.28429L9.07786 4.82801C9.39904 5.14919 9.56481 5.47555 9.56481 5.79673C9.56481 6.1179 9.39904 6.44426 9.07786 6.76544C8.91727 6.92603 8.75668 7.09179 8.5961 7.25238C8.11433 7.73933 7.66365 8.20037 7.16634 8.6407C7.15598 8.65106 7.1508 8.65624 7.14044 8.6666C6.71048 9.09656 6.77782 9.5058 6.88143 9.81662C6.88661 9.83216 6.89179 9.84252 6.89697 9.85806C7.29585 10.8164 7.85014 11.7281 8.71524 12.816C10.2693 14.7327 11.9063 16.2194 13.709 17.3643C13.9318 17.5093 14.1701 17.6233 14.3928 17.7373C14.6 17.8409 14.7917 17.9393 14.9627 18.0481C14.9834 18.0584 14.9989 18.0688 15.0196 18.0792C15.1906 18.1672 15.3564 18.2087 15.5221 18.2087C15.9365 18.2087 16.2059 17.9445 16.294 17.8564L18.2314 15.919C18.5319 15.6185 18.8582 15.4579 19.1794 15.4579C19.5731 15.4579 19.8943 15.7014 20.0963 15.919L23.22 19.0375C23.8416 19.6591 23.8365 20.3326 23.2045 20.9905C22.9869 21.2236 22.759 21.4463 22.5155 21.6794C22.1529 22.0317 21.7747 22.3943 21.4328 22.8036C20.8371 23.4459 20.1274 23.7464 19.2105 23.7464C19.1224 23.7464 19.0292 23.7412 18.9411 23.736C17.242 23.6272 15.662 22.9642 14.4757 22.3995C11.2536 20.8402 8.42515 18.6283 6.07848 15.8206C4.14624 13.4946 2.84599 11.3293 1.98607 9.0085C1.4525 7.58392 1.25047 6.43908 1.33335 5.39784Z" fill="#404266"/>
</svg>

<svg xmlns="http://www.w3.org/2000/svg" width="25" height="25" fill="none"><path fill="#404266" d="M5.1 16.62c2.46 2.95 5.43 5.27 8.82 6.9 1.3.62 3 1.35 4.93 1.47.12 0 .24 0 .36 0 1.3 0 2.33-.45 3.18-1.36 0 0 0-.02.02-.03.3-.35.64-.68 1-1.02.24-.24.5-.48.73-.73 1.1-1.15 1.1-2.6 0-3.72L21 15c-.53-.54-1.16-.83-1.82-.83-.66 0-1.3.3-1.84.84l-1.86 1.86c-.17-.1-.35-.18-.5-.27-.22-.1-.4-.2-.58-.32-1.7-1.07-3.22-2.47-4.7-4.27-.73-.92-1.23-1.7-1.58-2.5.5-.46.95-.92 1.4-1.37.14-.16.3-.32.46-.48.56-.56.86-1.2.86-1.86 0-.67-.3-1.32-.86-1.88L8.44 2.38c-.18-.18-.35-.36-.53-.54-.33-.35-.7-.72-1.04-1.04C6.33.27 5.7 0 5.04 0c-.66 0-1.3.27-1.85.8L1.25 2.74C.56 3.44.16 4.3.06 5.3-.03 6.52.2 7.83.8 9.42c.9 2.46 2.26 4.75 4.3 7.2zM1.32 5.4c.07-.7.33-1.27.83-1.76L4.08 1.7c.3-.28.64-.43.96-.43.3 0 .63.15.93.45.35.32.67.66 1.03 1.02.17.18.35.36.53.54l1.55 1.55c.32.32.48.65.48.97 0 .32-.16.64-.48.97-.16.16-.32.32-.48.48-.5.5-.94.95-1.43 1.4 0 0-.02 0-.03.02-.43.43-.36.84-.26 1.15 0 0 0 .02.02.04.4.96.95 1.87 1.82 2.96 1.55 1.9 3.2 3.4 5 4.54.2.15.45.26.67.38.2.1.4.2.56.3.02.02.04.03.06.04.17.1.34.13.5.13.42 0 .7-.26.77-.34l1.93-1.94c.3-.3.63-.46.95-.46.4 0 .7.24.92.46l3.12 3.12c.62.62.62 1.3-.02 1.95-.2.22-.44.45-.68.68-.37.35-.75.7-1.1 1.12-.58.65-1.3.95-2.2.95-.1 0-.2 0-.28 0-1.7-.12-3.28-.8-4.46-1.35-3.23-1.56-6.05-3.77-8.4-6.58-1.93-2.33-3.23-4.5-4.1-6.8-.53-1.44-.73-2.58-.65-3.62z"/></svg>
